dist/images/allwaysforward.svg

<?xml version="1.0" encoding="UTF-8"?>
<svg width="363px" height="89px" viewBox="0 0 363 89" version="1.1" xmlns="http://www.w3.org/2000/svg" xmlns:xlink="http://www.w3.org/1999/xlink">
    <!-- Generator: Sketch 44.1 (41455) - http://www.bohemiancoding.com/sketch -->
    <title>allwaysforward</title>
    <desc>Created with Sketch.</desc>
    <defs></defs>
    <g id="Home-page" stroke="none" stroke-width="1" fill="none" fill-rule="evenodd">
        <g id="Desktop-HD-Alt" transform="translate(-858.000000, -3208.000000)">
            <g id="middle-section" transform="translate(-47.000000, 2829.000000)">
                <g id="allwaysforward" transform="translate(905.000000, 379.000000)">
                    <g id="Page-1">
                        <g>
                            <g id="allwaysforward">
                                <path d="M83.2673913,3.75714286 L83.2673913,13.5285714 C85.576087,14.0428571 87.2434783,14.9428571 88.3978261,16.4857143 C89.2956522,17.7714286 90.3217391,19.9571429 89.2956522,23.1714286 C87.5,29.2142857 83.0108696,45.0285714 83.0108696,45.0285714 L80.9586957,52.3571429 L79.9326087,49.1428571 L79.9326087,49.2714286 L65.0543478,3.24285714 L52.8695652,3.24285714 L37.7347826,52.8714286 L36.7086957,49.4 L36.7086957,49.4 L35.2978261,44.5142857 C35.2978261,44.5142857 35.0413043,43.4857143 34.6565217,42.0714286 L34.6565217,42.0714286 L34.6565217,42.0714286 C33.2456522,37.0571429 30.1673913,26 29.2695652,22.7857143 C28.6282609,20.4714286 29.2695652,18.9285714 30.0391304,18.0285714 C31.3217391,16.3571429 33.5021739,15.7142857 35.0413043,15.4571429 L35.0413043,3.88571429 L4.9,3.88571429 L4.9,13.6571429 C8.23478261,14.1714286 13.3652174,15.8428571 14.9043478,21.7571429 C16.1869565,26 28.5,73.4428571 31.1934783,83.7285714 L44.9173913,83.7285714 L48.7652174,83.7285714 L56.4608696,51.8428571 L55.1782609,50.4285714 L59.2826087,34.4857143 L71.4673913,83.7285714 L87.1152174,83.7285714 C89.2956522,75.6285714 102.506522,27.4142857 104.045652,21.8857143 C105.584783,16.3571429 110.715217,15.3285714 113.280435,15.2 L113.280435,3.75714286 L83.2673913,3.75714286 L83.2673913,3.75714286 L83.2673913,3.75714286 Z" id="XMLID_11_" fill="#C5050C"></path>
                                <path d="M70.0565217,85.6571429 L86.6021739,85.6571429 C88.7826087,77.5571429 102.506522,27.4142857 104.045652,21.8857143 C105.584783,16.3571429 110.715217,15.3285714 113.280435,15.2 L113.280435,3.75714286 L81.3434783,3.75714286 L81.3434783,15.2 C83.1391304,15.3285714 85.576087,15.8428571 86.8586957,17.6428571 C87.8847826,18.9285714 88.0130435,20.7285714 87.5,22.7857143 C85.7043478,28.9571429 81.2152174,44.6428571 81.2152174,44.6428571 L79.9326087,49.4 L65.0543478,3.24285714 L50.8173913,3.24285714 L36.7086957,49.4 L35.2978261,44.5142857 C35.2978261,44.3857143 30.2956522,27.0285714 29.1413043,22.6571429 C28.5,20.3428571 29.1413043,18.8 29.9108696,17.9 C31.1934783,16.2285714 33.373913,15.5857143 34.9130435,15.3285714 L34.9130435,3.75714286 L3.10434783,3.75714286 L3.10434783,15.2 C5.66956522,15.3285714 11.6978261,16.2285714 13.2369565,22.0142857 C14.3913043,26.6428571 27.6021739,77.4285714 29.7826087,85.6571429 L46.3282609,85.6571429 L58.2565217,38.3428571 L70.0565217,85.6571429 L70.0565217,85.6571429 L70.0565217,85.6571429 Z M88.9108696,88.6142857 L67.6195652,88.6142857 L58.2565217,50.6857143 L48.6369565,88.6142857 L27.473913,88.6142857 L27.2173913,87.4571429 C27.0891304,86.8142857 11.6978261,27.6714286 10.4152174,22.6571429 C9.26086957,18.5428571 4.51521739,18.0285714 2.59130435,18.0285714 L1.82173913,18.0285714 L0.0260869565,18.2857143 L0.0260869565,0.671428571 L37.8630435,0.671428571 L37.8630435,18.0285714 L36.4521739,18.0285714 C35.6826087,18.0285714 33.2456522,18.4142857 32.3478261,19.5714286 C32.2195652,19.8285714 31.7065217,20.3428571 32.0913043,21.7571429 C32.8608696,24.5857143 35.2978261,33.2 36.8369565,38.6 L48.6369565,0.0285714286 L67.2347826,0.0285714286 L79.8043478,38.9857143 C81.2152174,33.8428571 83.523913,25.8714286 84.6782609,21.8857143 C84.9347826,20.8571429 84.9347826,19.9571429 84.55,19.4428571 C83.7804348,18.5428571 81.9847826,18.1571429 80.4456522,18.1571429 L80.0608696,18.1571429 L78.3934783,18.2857143 L78.3934783,0.8 L116.230435,0.8 L116.230435,18.2857143 L114.563043,18.1571429 L114.178261,18.1571429 C112.382609,18.1571429 108.021739,18.5428571 106.995652,22.6571429 C105.328261,28.7 89.1673913,87.4571429 89.1673913,87.4571429 L88.9108696,88.6142857 L88.9108696,88.6142857 L88.9108696,88.6142857 Z" id="XMLID_8_" fill="#221F1F"></path>
                            </g>
                        </g>
                    </g>
                    <path d="M153.968,34 L147.368,34 L147.368,31.528 L148.952,31.528 L148.424,29.152 L143.024,29.152 L142.544,31.528 L144.128,31.528 L144.128,34 L137.576,34 L137.576,31.528 L139.136,31.528 L142.712,16.984 L148.832,16.984 L152.432,31.528 L153.968,31.528 L153.968,34 Z M147.92,26.8 L146.384,19.72 L145.04,19.72 L143.528,26.8 L147.92,26.8 Z M168.283895,34 L168.283895,28.576 L165.187895,28.576 L165.187895,31.528 L161.131895,31.528 L161.131895,19.36 L163.267895,19.36 L163.267895,16.984 L155.827895,16.984 L155.827895,19.36 L157.723895,19.36 L157.723895,31.528 L155.827895,31.528 L155.827895,34 L168.283895,34 Z M182.57579,34 L182.57579,28.576 L179.47979,28.576 L179.47979,31.528 L175.42379,31.528 L175.42379,19.36 L177.55979,19.36 L177.55979,16.984 L170.11979,16.984 L170.11979,19.36 L172.01579,19.36 L172.01579,31.528 L170.11979,31.528 L170.11979,34 L182.57579,34 Z M210.463579,34 L207.631579,34 L203.815579,21.52 L199.951579,34 L197.119579,34 L193.039579,19.36 L191.527579,19.36 L191.527579,16.984 L198.127579,16.984 L198.127579,19.36 L196.495579,19.36 L198.799579,29.032 L202.399579,16.984 L205.351579,16.984 L208.903579,29.032 L211.231579,19.36 L209.503579,19.36 L209.503579,16.984 L216.103579,16.984 L216.103579,19.36 L214.567579,19.36 L210.463579,34 Z M231.283474,34 L224.683474,34 L224.683474,31.528 L226.267474,31.528 L225.739474,29.152 L220.339474,29.152 L219.859474,31.528 L221.443474,31.528 L221.443474,34 L214.891474,34 L214.891474,31.528 L216.451474,31.528 L220.027474,16.984 L226.147474,16.984 L229.747474,31.528 L231.283474,31.528 L231.283474,34 Z M225.235474,26.8 L223.699474,19.72 L222.355474,19.72 L220.843474,26.8 L225.235474,26.8 Z M241.807369,34 L233.647369,34 L233.647369,31.528 L236.023369,31.528 L236.023369,26.392 L231.967369,19.36 L230.455369,19.36 L230.455369,16.984 L237.055369,16.984 L237.055369,19.36 L235.495369,19.36 L236.911369,22 C237.223369,22.6 237.559369,23.272 237.871369,23.992 C238.183369,23.272 238.471369,22.624 238.783369,22.024 L240.223369,19.36 L238.735369,19.36 L238.735369,16.984 L245.071369,16.984 L245.071369,19.36 L243.511369,19.36 L239.431369,26.392 L239.431369,31.528 L241.807369,31.528 L241.807369,34 Z M249.355264,34 L249.499264,32.848 C250.507264,33.76 251.731264,34.216 253.555264,34.216 C257.203264,34.216 259.171264,31.816 259.171264,29.008 C259.171264,26.488 257.635264,25.288 256.363264,24.76 C255.163264,24.28 253.747264,23.824 252.739264,23.584 C251.467264,23.296 250.219264,22.792 250.219264,21.544 C250.219264,20.416 251.131264,19.624 252.667264,19.624 C254.227264,19.624 255.811264,20.032 256.027264,22.408 L259.027264,22.168 L259.027264,16.984 L256.195264,16.984 L256.051264,18.232 C255.523264,17.56 254.011264,16.768 252.091264,16.768 C248.635264,16.768 246.955264,18.808 246.955264,21.544 C246.955264,25.552 250.987264,25.984 253.243264,26.68 C254.539264,27.088 255.811264,27.616 255.811264,29.104 C255.811264,30.736 254.563264,31.36 252.811264,31.36 C250.915264,31.36 249.619264,30.4 249.355264,28.576 L246.499264,28.816 L246.499264,34 L249.355264,34 Z" id="ALL-WAYS" fill="#2B2B2B"></path>
                    <path d="M147.5,51.766 L147.5,58.57 L158.084,58.57 L158.084,64.828 L147.5,64.828 L147.5,76 L140.36,76 L140.36,45.214 L159.848,45.214 L159.848,51.766 L147.5,51.766 Z M188.470816,60.628 C188.470816,59.227993 188.274818,57.9470058 187.882816,56.785 C187.490814,55.6229942 186.93782,54.6220042 186.223816,53.782 C185.509812,52.9419958 184.655821,52.2840024 183.661816,51.808 C182.667811,51.3319976 181.554822,51.094 180.322816,51.094 C179.11881,51.094 178.012821,51.3319976 177.004816,51.808 C175.996811,52.2840024 175.13582,52.9419958 174.421816,53.782 C173.707812,54.6220042 173.154818,55.6229942 172.762816,56.785 C172.370814,57.9470058 172.174816,59.227993 172.174816,60.628 C172.174816,62.0000069 172.370814,63.2669942 172.762816,64.429 C173.154818,65.5910058 173.707812,66.5989957 174.421816,67.453 C175.13582,68.3070043 175.996811,68.9719976 177.004816,69.448 C178.012821,69.9240024 179.11881,70.162 180.322816,70.162 C181.554822,70.162 182.667811,69.9240024 183.661816,69.448 C184.655821,68.9719976 185.509812,68.3070043 186.223816,67.453 C186.93782,66.5989957 187.490814,65.5910058 187.882816,64.429 C188.274818,63.2669942 188.470816,62.0000069 188.470816,60.628 Z M196.114816,60.628 C196.114816,62.8960113 195.72982,64.9959903 194.959816,66.928 C194.189812,68.8600097 193.104823,70.5329929 191.704816,71.947 C190.304809,73.3610071 188.631826,74.4739959 186.685816,75.286 C184.739806,76.0980041 182.576828,76.504 180.196816,76.504 C177.816804,76.504 175.660826,76.0980041 173.728816,75.286 C171.796806,74.4739959 170.151823,73.3610071 168.793816,71.947 C167.435809,70.5329929 166.39282,68.8600097 165.664816,66.928 C164.936812,64.9959903 164.572816,62.8960113 164.572816,60.628 C164.572816,58.3599887 164.957812,56.2530097 165.727816,54.307 C166.49782,52.3609903 167.575809,50.6810071 168.961816,49.267 C170.347823,47.8529929 172.020806,46.7400041 173.980816,45.928 C175.940826,45.1159959 178.110804,44.71 180.490816,44.71 C182.870828,44.71 185.019806,45.1159959 186.937816,45.928 C188.855826,46.7400041 190.493809,47.8529929 191.851816,49.267 C193.209823,50.6810071 194.259812,52.3609903 195.001816,54.307 C195.74382,56.2530097 196.114816,58.3599887 196.114816,60.628 Z M218.059632,55.462 C218.059632,54.1739936 217.597637,53.1730036 216.673632,52.459 C215.749627,51.7449964 214.51764,51.388 212.977632,51.388 C212.417629,51.388 211.941634,51.4019999 211.549632,51.43 C211.15763,51.4580001 210.709635,51.5139996 210.205632,51.598 L210.205632,60.082 C210.681634,60.1380003 211.073631,60.1729999 211.381632,60.187 C211.689634,60.2010001 212.05363,60.208 212.473632,60.208 C214.181641,60.208 215.539627,59.809004 216.547632,59.011 C217.555637,58.212996 218.059632,57.0300078 218.059632,55.462 Z M219.319632,76 L214.069632,65.962 C213.845631,65.9900001 213.642633,66.004 213.460632,66.004 L212.851632,66.004 C212.319629,66.004 211.871634,65.9970001 211.507632,65.983 C211.14363,65.9689999 210.709635,65.9480001 210.205632,65.92 L210.205632,76 L203.065632,76 L203.065632,45.508 C204.381639,45.3679993 205.767625,45.2490005 207.223632,45.151 C208.679639,45.0529995 210.317623,45.004 212.137632,45.004 C214.545644,45.004 216.589624,45.2699973 218.269632,45.802 C219.94964,46.3340027 221.328627,47.0619954 222.406632,47.986 C223.484637,48.9100046 224.26863,49.9949938 224.758632,51.241 C225.248634,52.4870062 225.493632,53.809993 225.493632,55.21 C225.493632,57.0580092 225.031637,58.7589922 224.107632,60.313 C223.183627,61.8670078 221.88164,63.1339951 220.201632,64.114 L227.425632,76 L219.319632,76 Z M260.752448,76.504 L259.786448,76.588 L250.336448,58.15 L241.012448,76.588 L240.088448,76.504 L228.874448,45.214 L237.064448,45.214 L242.020448,61.384 L250.042448,44.962 L250.798448,44.962 L258.862448,61.258 L263.776448,45.214 L271.798448,45.214 L260.752448,76.504 Z M285.847264,57.562 L282.781264,64.954 L288.871264,64.954 L285.847264,57.562 Z M293.449264,76 L291.139264,70.414 L280.513264,70.414 L278.203264,76 L270.937264,76 L285.427264,44.962 L286.393264,44.962 L300.883264,76 L293.449264,76 Z M320.09808,55.462 C320.09808,54.1739936 319.636085,53.1730036 318.71208,52.459 C317.788075,51.7449964 316.556088,51.388 315.01608,51.388 C314.456077,51.388 313.980082,51.4019999 313.58808,51.43 C313.196078,51.4580001 312.748083,51.5139996 312.24408,51.598 L312.24408,60.082 C312.720082,60.1380003 313.112079,60.1729999 313.42008,60.187 C313.728082,60.2010001 314.092078,60.208 314.51208,60.208 C316.220089,60.208 317.578075,59.809004 318.58608,59.011 C319.594085,58.212996 320.09808,57.0300078 320.09808,55.462 Z M321.35808,76 L316.10808,65.962 C315.884079,65.9900001 315.681081,66.004 315.49908,66.004 L314.89008,66.004 C314.358077,66.004 313.910082,65.9970001 313.54608,65.983 C313.182078,65.9689999 312.748083,65.9480001 312.24408,65.92 L312.24408,76 L305.10408,76 L305.10408,45.508 C306.420087,45.3679993 307.806073,45.2490005 309.26208,45.151 C310.718087,45.0529995 312.356071,45.004 314.17608,45.004 C316.584092,45.004 318.628072,45.2699973 320.30808,45.802 C321.988089,46.3340027 323.367075,47.0619954 324.44508,47.986 C325.523086,48.9100046 326.307078,49.9949938 326.79708,51.241 C327.287083,52.4870062 327.53208,53.809993 327.53208,55.21 C327.53208,57.0580092 327.070085,58.7589922 326.14608,60.313 C325.222075,61.8670078 323.920089,63.1339951 322.24008,64.114 L329.46408,76 L321.35808,76 Z M354.726896,60.334 C354.726896,57.533986 353.865905,55.3430079 352.143896,53.761 C350.421888,52.1789921 347.894913,51.388 344.562896,51.388 C343.946893,51.388 343.442898,51.4019999 343.050896,51.43 C342.658894,51.4580001 342.182899,51.4999997 341.622896,51.556 L341.622896,69.7 C341.958898,69.7280001 342.245895,69.7559999 342.483896,69.784 C342.721897,69.8120001 342.966895,69.8329999 343.218896,69.847 C343.470897,69.8610001 343.736895,69.868 344.016896,69.868 L345.024896,69.868 C346.704905,69.868 348.15389,69.6440022 349.371896,69.196 C350.589902,68.7479978 351.597892,68.1040042 352.395896,67.264 C353.1939,66.4239958 353.781894,65.4160059 354.159896,64.24 C354.537898,63.0639941 354.726896,61.7620071 354.726896,60.334 Z M362.328896,60.334 C362.328896,62.6020113 361.9649,64.7089903 361.236896,66.655 C360.508892,68.6010097 359.395904,70.2809929 357.897896,71.695 C356.399889,73.1090071 354.488908,74.2219959 352.164896,75.034 C349.840885,75.8460041 347.082912,76.252 343.890896,76.252 C342.994892,76.252 342.1759,76.2450001 341.433896,76.231 C340.691892,76.2169999 339.9639,76.1890002 339.249896,76.147 C338.535893,76.1049998 337.8009,76.0490004 337.044896,75.979 C336.288892,75.9089996 335.434901,75.8320004 334.482896,75.748 L334.482896,45.508 C336.274905,45.311999 337.856889,45.1790003 339.228896,45.109 C340.600903,45.0389996 342.056888,45.004 343.596896,45.004 C346.788912,45.004 349.560884,45.3959961 351.912896,46.18 C354.264908,46.9640039 356.210888,48.0419931 357.750896,49.414 C359.290904,50.7860069 360.438892,52.4029907 361.194896,54.265 C361.9509,56.1270093 362.328896,58.1499891 362.328896,60.334 Z" id="FORWARD" fill="#2B2B2B"></path>
                </g>
            </g>
        </g>
    </g>
</svg>

<svg width="363" height="89" viewBox="0 0 363 89" xmlns="http://www.w3.org/2000/svg"><title>allwaysforward</title><g fill="none" fill-rule="evenodd"><path d="M83.267 3.757v9.772c2.31.514 3.976 1.414 5.13 2.957.899 1.285 1.925 3.471.899 6.685C87.5 29.214 83.01 45.03 83.01 45.03l-2.052 7.328-1.026-3.214v.128L65.054 3.243H52.87L37.735 52.87 36.709 49.4l-1.411-4.886s-.257-1.028-.641-2.443C33.246 37.057 30.167 26 29.27 22.786c-.642-2.315 0-3.857.77-4.757 1.282-1.672 3.462-2.315 5.001-2.572V3.886H4.9v9.771c3.335.514 8.465 2.186 10.004 8.1C16.187 26 28.5 73.443 31.194 83.73h17.571l7.696-31.886-1.283-1.414 4.105-15.943 12.184 49.243h15.648c2.18-8.1 15.392-56.315 16.93-61.843 1.54-5.529 6.67-6.557 9.235-6.686V3.757H83.267z" fill="#C5050C"/><path d="M70.057 85.657h16.545c2.18-8.1 15.905-58.243 17.444-63.771 1.539-5.529 6.67-6.557 9.234-6.686V3.757H81.343V15.2c1.796.129 4.233.643 5.516 2.443 1.026 1.286 1.154 3.086.641 5.143-1.796 6.171-6.285 21.857-6.285 21.857L79.933 49.4 65.054 3.243H50.817L36.71 49.4l-1.411-4.886c0-.128-5.002-17.485-6.157-21.857-.641-2.314 0-3.857.77-4.757 1.282-1.671 3.463-2.314 5.002-2.571V3.757H3.104V15.2c2.566.129 8.594 1.029 10.133 6.814 1.154 4.629 14.365 55.415 16.546 63.643h16.545l11.929-47.314 11.8 47.314zm18.854 2.957H67.62l-9.363-37.928-9.62 37.928H27.474l-.257-1.157c-.128-.643-15.52-59.786-16.802-64.8-1.154-4.114-5.9-4.628-7.824-4.628h-.77l-1.795.257V.67h37.837V18.03h-1.41c-.77 0-3.207.385-4.105 1.542-.128.258-.641.772-.257 2.186.77 2.829 3.207 11.443 4.746 16.843L48.637.029h18.598l12.57 38.957c1.41-5.143 3.719-13.115 4.873-17.1.257-1.029.257-1.929-.128-2.443-.77-.9-2.565-1.286-4.104-1.286h-.385l-1.668.129V.8h37.837v17.486l-1.667-.129h-.385c-1.795 0-6.156.386-7.182 4.5-1.668 6.043-17.829 64.8-17.829 64.8l-.256 1.157z" fill="#221F1F"/><path d="M153.968 34h-6.6v-2.472h1.584l-.528-2.376h-5.4l-.48 2.376h1.584V34h-6.552v-2.472h1.56l3.576-14.544h6.12l3.6 14.544h1.536V34zm-6.048-7.2l-1.536-7.08h-1.344l-1.512 7.08h4.392zm20.364 7.2v-5.424h-3.096v2.952h-4.056V19.36h2.136v-2.376h-7.44v2.376h1.896v12.168h-1.896V34h12.456zm14.292 0v-5.424h-3.096v2.952h-4.056V19.36h2.136v-2.376h-7.44v2.376h1.896v12.168h-1.896V34h12.456zm27.888 0h-2.832l-3.816-12.48L199.952 34h-2.832l-4.08-14.64h-1.512v-2.376h6.6v2.376h-1.632l2.304 9.672 3.6-12.048h2.952l3.552 12.048 2.328-9.672h-1.728v-2.376h6.6v2.376h-1.536L210.464 34zm20.82 0h-6.6v-2.472h1.583l-.528-2.376h-5.4l-.48 2.376h1.584V34h-6.552v-2.472h1.56l3.576-14.544h6.12l3.6 14.544h1.536V34zm-6.049-7.2l-1.536-7.08h-1.344l-1.512 7.08h4.392zm16.572 7.2h-8.16v-2.472h2.376v-5.136l-4.056-7.032h-1.512v-2.376h6.6v2.376h-1.56l1.416 2.64c.312.6.648 1.272.96 1.992.312-.72.6-1.368.912-1.968l1.44-2.664h-1.488v-2.376h6.336v2.376h-1.56l-4.08 7.032v5.136h2.376V34zm7.548 0l.144-1.152c1.008.912 2.232 1.368 4.056 1.368 3.648 0 5.616-2.4 5.616-5.208 0-2.52-1.536-3.72-2.808-4.248-1.2-.48-2.616-.936-3.624-1.176-1.272-.288-2.52-.792-2.52-2.04 0-1.128.912-1.92 2.448-1.92 1.56 0 3.144.408 3.36 2.784l3-.24v-5.184h-2.832l-.144 1.248c-.528-.672-2.04-1.464-3.96-1.464-3.456 0-5.136 2.04-5.136 4.776 0 4.008 4.032 4.44 6.288 5.136 1.296.408 2.568.936 2.568 2.424 0 1.632-1.248 2.256-3 2.256-1.896 0-3.192-.96-3.456-2.784l-2.856.24V34h2.856zM147.5 51.766v6.804h10.584v6.258H147.5V76h-7.14V45.214h19.488v6.552H147.5zm40.97 8.862c0-1.4-.195-2.681-.587-3.843-.392-1.162-.945-2.163-1.66-3.003a7.679 7.679 0 0 0-2.561-1.974c-.994-.476-2.107-.714-3.34-.714-1.203 0-2.31.238-3.317.714a7.62 7.62 0 0 0-2.583 1.974c-.714.84-1.267 1.841-1.66 3.003-.391 1.162-.587 2.443-.587 3.843 0 1.372.196 2.639.588 3.801.392 1.162.945 2.17 1.659 3.024a7.504 7.504 0 0 0 2.583 1.995c1.008.476 2.114.714 3.318.714 1.232 0 2.345-.238 3.339-.714a7.562 7.562 0 0 0 2.562-1.995c.714-.854 1.267-1.862 1.659-3.024.392-1.162.588-2.429.588-3.801zm7.645 0c0 2.268-.385 4.368-1.155 6.3-.77 1.932-1.855 3.605-3.255 5.019-1.4 1.414-3.073 2.527-5.02 3.339-1.945.812-4.108 1.218-6.488 1.218-2.38 0-4.536-.406-6.468-1.218-1.932-.812-3.577-1.925-4.935-3.339-1.358-1.414-2.401-3.087-3.13-5.019-.727-1.932-1.091-4.032-1.091-6.3s.385-4.375 1.155-6.321c.77-1.946 1.848-3.626 3.234-5.04 1.386-1.414 3.059-2.527 5.019-3.339 1.96-.812 4.13-1.218 6.51-1.218s4.529.406 6.447 1.218c1.918.812 3.556 1.925 4.914 3.339 1.358 1.414 2.408 3.094 3.15 5.04.742 1.946 1.113 4.053 1.113 6.321zm21.945-5.166c0-1.288-.462-2.289-1.386-3.003-.924-.714-2.156-1.071-3.696-1.071-.56 0-1.036.014-1.428.042-.392.028-.84.084-1.344.168v8.484c.476.056.868.091 1.176.105.308.014.672.021 1.092.021 1.708 0 3.066-.399 4.074-1.197s1.512-1.981 1.512-3.549zM219.32 76l-5.25-10.038a4.95 4.95 0 0 1-.61.042h-.608c-.532 0-.98-.007-1.344-.021a77.965 77.965 0 0 1-1.302-.063V76h-7.14V45.508a107.81 107.81 0 0 1 4.158-.357 73.816 73.816 0 0 1 4.914-.147c2.408 0 4.452.266 6.132.798 1.68.532 3.059 1.26 4.137 2.184 1.078.924 1.862 2.009 2.352 3.255.49 1.246.735 2.569.735 3.969 0 1.848-.462 3.549-1.386 5.103-.924 1.554-2.226 2.821-3.906 3.801L227.426 76h-8.106zm41.432.504l-.966.084-9.45-18.438-9.324 18.438-.924-.084-11.214-31.29h8.19l4.956 16.17 8.022-16.422h.756l8.064 16.296 4.914-16.044h8.022l-11.046 31.29zm25.095-18.942l-3.066 7.392h6.09l-3.024-7.392zM293.45 76l-2.31-5.586h-10.626L278.203 76h-7.266l14.49-31.038h.966L300.883 76h-7.434zm26.65-20.538c0-1.288-.463-2.289-1.387-3.003-.924-.714-2.156-1.071-3.696-1.071-.56 0-1.036.014-1.428.042-.392.028-.84.084-1.344.168v8.484c.476.056.868.091 1.176.105.308.014.672.021 1.092.021 1.708 0 3.066-.399 4.074-1.197s1.512-1.981 1.512-3.549zM321.358 76l-5.25-10.038a4.95 4.95 0 0 1-.61.042h-.609c-.532 0-.98-.007-1.344-.021a77.965 77.965 0 0 1-1.302-.063V76h-7.14V45.508a107.81 107.81 0 0 1 4.158-.357 73.816 73.816 0 0 1 4.914-.147c2.408 0 4.452.266 6.132.798 1.68.532 3.06 1.26 4.137 2.184 1.078.924 1.862 2.009 2.352 3.255.49 1.246.735 2.569.735 3.969 0 1.848-.462 3.549-1.386 5.103-.924 1.554-2.226 2.821-3.906 3.801L329.464 76h-8.106zm33.368-15.666c0-2.8-.861-4.991-2.583-6.573-1.722-1.582-4.25-2.373-7.581-2.373-.616 0-1.12.014-1.512.042-.392.028-.868.07-1.428.126V69.7c.336.028.623.056.86.084.239.028.484.049.736.063.252.014.518.021.798.021h1.008c1.68 0 3.129-.224 4.347-.672 1.218-.448 2.226-1.092 3.024-1.932.798-.84 1.386-1.848 1.764-3.024.378-1.176.567-2.478.567-3.906zm7.602 0c0 2.268-.364 4.375-1.092 6.321a13.196 13.196 0 0 1-3.34 5.04c-1.497 1.414-3.408 2.527-5.732 3.339-2.324.812-5.082 1.218-8.274 1.218-.896 0-1.715-.007-2.457-.021a54.803 54.803 0 0 1-2.184-.084 65.91 65.91 0 0 1-2.205-.168c-.756-.07-1.61-.147-2.562-.231v-30.24a83.303 83.303 0 0 1 4.746-.399 85.917 85.917 0 0 1 4.368-.105c3.192 0 5.964.392 8.316 1.176 2.352.784 4.298 1.862 5.838 3.234 1.54 1.372 2.688 2.989 3.444 4.851.756 1.862 1.134 3.885 1.134 6.069z" fill="#2B2B2B"/></g></svg>
